!!!OTL: Der himmlische J&auml;ger  (4-1), S. 4
!!!id: P0563
**kern
*clefG2
*k[b-]
*F:
{4c
4f
8g
8a
=1
16f
4.f
8f
8a
8b-
16f
4cc}
=2
{8f
8a
=3
16f
4.cc
8dd
4cc
16f
8f
=4yy
8a
4g
=5
4a}
2r
=6
{8f
8a
=7
4.cc
8cc
4cc
8a
8g
=8
8.f
16g
8a
8cc
4g}
=9
{8.cc
16dd
=10
4cc
8cc
8b-
4a
4g
=11
4f}
==
*-
!!!minrhy: 16
!!!meters: 4/4 ]  ZZ[4
!!!cut: Der himmlische J&auml;ger  (4-1), S. 4
!!!reg: Lothringen
!!!trd: PINCK, Louis: Verklingende Weisen Bd 4, Kassel 1939
!!!rhy1: X__X__X_X_  (X__.X_X_X_)X__   (x2)
!!!rhy2: X_X_  (X__.X_X__)X_X_X__  X__0__
!!!key: P0563  16  F 4/4 ]  ZZ[4
!!!mod: SECHSTONSKALA DUR ?]  AMBITUS[9
!!!kad: 5321
!!!akz: 15_513_5512_531_
!!!fot: 'a__b__c__d__
!!!for: 'a__b__c__d__
!!!fok: '/__~a_Ma_\__
!! PHRAS[AUFTAKTIG]
!!!fkt: geistliches Lied
!! LOTH VKL
!! PR[22] 2K[3] 2G[19] 3K[3] 3G[0] 4A[3] 4Ü[0] 5A[0] 6K[0] 6G[6]
!! 7K[0] 7G[0] 8A[0] MEHR[0] SI[34] ABS[32] SR[22] SP[13]
!! ST[10] 2k[3] 2g[28] 3k[6] 3g[3] 4d[3] 4ü[0] 5d[0] 6k[0] 6g[0]
!! 7k[0] 7g[0] 8d[0] mehr[0] si[44] dm[-10] sr[31] sp[13]
!! 1F[3] 2F[76] 3F[18] 4F[0] LF[0] 2P[3] 3P[0] 4P[0] TRI[0] DF[4] AB[34]
!! TF[0] U3K[0] U3[0] U4[0] U4Ü[0] U5[6] U6K[0] U6[0] U7K[0] U7[0]
!! N1[24] N2K[0] N2[21] N3K[0] N3[18] N4[6] N4Ü[0] N5[18] N6K[0] N6[6]
!!!n7k: 0] N7[0] O1[0] O2K[0] O2[0] O3K[0] O3[0] HÖ[0
!!!RNB: symbol: &auml;      = a umlaut  (UTF-8: Å„)
